X: 31
T:Lord Brougham's Hornpipe. BF12.31
M:4/4
L:1/8
Q:160
C:Browne "C" hand
S:MS12,c1835,Browne Coll.,Lakes
R:Hornpipe
O:England
A:Lakes
Z:vmp.Chris Partington.
K:D
(A/B/c)|defd AdFA|DFAd edef|gabg fgaf|egBe dcBA|!
defd AdFA|DFAd edef|gebg face|e2d2d2:|!
|:(A/B/c)|Bfaf fadf|gbed ceAc|dcBA GEed|c2A2A2(A/B/c)|!
dAdf eAeg|fAfa gAgb|gebg face|e2d2d2:|]
